wp-content/uploads/stamp01.svg

<?xml version="1.0" encoding="UTF-8"?> <svg xmlns="http://www.w3.org/2000/svg" width="197" height="23" viewBox="0 0 197 23" fill="none"><rect width="197" height="23" rx="5" fill="#032538"></rect><path d="M11.552 14.92V13.576L17.76 11.496V11.304L11.552 9.224V7.88L18.24 10.184V12.616L11.552 14.92ZM37.9938 17H36.6498V13.256C36.6498 12.9787 36.5858 12.7653 36.4578 12.616C36.3298 12.4667 36.1058 12.392 35.7858 12.392H32.2978V17H30.9538V5.8H34.9538C35.5298 5.8 36.0311 5.88533 36.4578 6.056C36.8844 6.216 37.2364 6.43467 37.5138 6.712C37.8018 6.98933 38.0151 7.31467 38.1538 7.688C38.3031 8.05067 38.3778 8.43467 38.3778 8.84V9.32C38.3778 9.736 38.2604 10.152 38.0258 10.568C37.8018 10.984 37.4498 11.304 36.9698 11.528V11.72C37.2898 11.7733 37.5404 11.9013 37.7218 12.104C37.9031 12.3067 37.9938 12.5947 37.9938 12.968V17ZM32.2978 11.144H34.7938C35.5511 11.144 36.1111 10.984 36.4738 10.664C36.8471 10.3333 37.0338 9.85333 37.0338 9.224V8.936C37.0338 8.37067 36.8471 7.91733 36.4738 7.576C36.1111 7.224 35.5511 7.048 34.7938 7.048H32.2978V11.144ZM40.8946 5.8H47.6786V7.048H42.2386V10.76H47.5826V12.008H42.2386V15.752H47.7746V17H40.8946V5.8ZM49.6195 5.8H51.0595L53.9875 16.424H54.1795L57.1075 5.8H58.5475L55.3795 17H52.7875L49.6195 5.8ZM60.4884 5.8H67.2724V7.048H61.8324V10.76H67.1764V12.008H61.8324V15.752H67.3684V17H60.4884V5.8ZM75.8693 16.424H76.0613V5.8H77.4053V17H74.7173L71.4853 6.376H71.2933V17H69.9493V5.8H72.6373L75.8693 16.424ZM80.9781 5.8V13.224C80.9781 14.1307 81.1861 14.8187 81.6021 15.288C82.0288 15.7467 82.6528 15.976 83.4741 15.976C84.2955 15.976 84.9141 15.7467 85.3301 15.288C85.7568 14.8187 85.9701 14.1307 85.9701 13.224V5.8H87.3141V13.224C87.3141 14.5253 86.9728 15.5173 86.2901 16.2C85.6075 16.8827 84.6688 17.224 83.4741 17.224C82.2795 17.224 81.3408 16.8827 80.6581 16.2C79.9755 15.5173 79.6341 14.5253 79.6341 13.224V5.8H80.9781ZM89.879 5.8H96.663V7.048H91.223V10.76H96.567V12.008H91.223V15.752H96.759V17H89.879V5.8ZM100.668 12.264H105.468V13.416H100.668V12.264ZM108.881 15.752H109.841V7.048H108.881V5.8H113.409C113.942 5.8 114.411 5.87467 114.817 6.024C115.233 6.17333 115.579 6.376 115.857 6.632C116.145 6.888 116.358 7.19733 116.497 7.56C116.646 7.912 116.721 8.296 116.721 8.712V8.904C116.721 9.21333 116.673 9.496 116.577 9.752C116.481 10.008 116.347 10.2373 116.177 10.44C116.006 10.6427 115.803 10.8187 115.569 10.968C115.345 11.1067 115.099 11.2133 114.833 11.288V11.48C115.366 11.6293 115.814 11.9173 116.177 12.344C116.539 12.76 116.721 13.272 116.721 13.88V14.072C116.721 14.488 116.646 14.8773 116.497 15.24C116.358 15.592 116.145 15.9013 115.857 16.168C115.579 16.424 115.233 16.6267 114.817 16.776C114.411 16.9253 113.942 17 113.409 17H108.881V15.752ZM111.185 15.752H113.313C113.942 15.752 114.454 15.5973 114.849 15.288C115.243 14.968 115.441 14.5307 115.441 13.976V13.88C115.441 13.304 115.254 12.8507 114.881 12.52C114.507 12.1787 114.001 12.008 113.361 12.008H111.185V15.752ZM111.185 10.76H113.361C114.001 10.76 114.507 10.5947 114.881 10.264C115.254 9.93333 115.441 9.48 115.441 8.904V8.808C115.441 8.264 115.243 7.83733 114.849 7.528C114.454 7.208 113.942 7.048 113.313 7.048H111.185V10.76ZM118.726 10.152C118.726 8.70133 119.072 7.576 119.766 6.776C120.459 5.976 121.424 5.576 122.662 5.576C123.899 5.576 124.864 5.976 125.558 6.776C126.251 7.576 126.598 8.70133 126.598 10.152V12.648C126.598 14.1413 126.251 15.2773 125.558 16.056C124.864 16.8347 123.899 17.224 122.662 17.224C121.424 17.224 120.459 16.8347 119.766 16.056C119.072 15.2773 118.726 14.1413 118.726 12.648V10.152ZM122.662 15.976C123.526 15.976 124.171 15.6827 124.598 15.096C125.035 14.4987 125.254 13.6507 125.254 12.552V10.248C125.254 9.224 125.035 8.39733 124.598 7.768C124.171 7.13867 123.526 6.824 122.662 6.824C121.798 6.824 121.147 7.13867 120.71 7.768C120.283 8.39733 120.07 9.224 120.07 10.248V12.552C120.07 13.6507 120.283 14.4987 120.71 15.096C121.147 15.6827 121.798 15.976 122.662 15.976ZM128.523 10.152C128.523 8.70133 128.869 7.576 129.562 6.776C130.256 5.976 131.221 5.576 132.459 5.576C133.696 5.576 134.661 5.976 135.355 6.776C136.048 7.576 136.395 8.70133 136.395 10.152V12.648C136.395 14.1413 136.048 15.2773 135.355 16.056C134.661 16.8347 133.696 17.224 132.459 17.224C131.221 17.224 130.256 16.8347 129.562 16.056C128.869 15.2773 128.523 14.1413 128.523 12.648V10.152ZM132.459 15.976C133.323 15.976 133.968 15.6827 134.395 15.096C134.832 14.4987 135.051 13.6507 135.051 12.552V10.248C135.051 9.224 134.832 8.39733 134.395 7.768C133.968 7.13867 133.323 6.824 132.459 6.824C131.595 6.824 130.944 7.13867 130.507 7.768C130.08 8.39733 129.867 9.224 129.867 10.248V12.552C129.867 13.6507 130.08 14.4987 130.507 15.096C130.944 15.6827 131.595 15.976 132.459 15.976ZM144.895 9.032C144.895 8.66933 144.821 8.34933 144.671 8.072C144.533 7.79467 144.341 7.56533 144.095 7.384C143.85 7.20267 143.567 7.064 143.247 6.968C142.927 6.872 142.591 6.824 142.239 6.824C141.93 6.824 141.637 6.86667 141.359 6.952C141.082 7.02667 140.831 7.13867 140.607 7.288C140.394 7.43733 140.223 7.624 140.095 7.848C139.967 8.06133 139.903 8.312 139.903 8.6V8.696C139.903 9.00533 139.967 9.272 140.095 9.496C140.223 9.70933 140.41 9.896 140.655 10.056C140.911 10.2053 141.226 10.3333 141.599 10.44C141.973 10.536 142.41 10.6213 142.911 10.696C144.085 10.8773 144.949 11.224 145.503 11.736C146.058 12.2373 146.335 12.9147 146.335 13.768V13.96C146.335 14.44 146.25 14.8827 146.079 15.288C145.919 15.6827 145.674 16.024 145.343 16.312C145.023 16.6 144.623 16.824 144.143 16.984C143.663 17.144 143.109 17.224 142.479 17.224C141.765 17.224 141.13 17.1227 140.575 16.92C140.031 16.7067 139.573 16.4187 139.199 16.056C138.837 15.6827 138.559 15.2507 138.367 14.76C138.175 14.2587 138.079 13.7147 138.079 13.128V12.648H139.423V13.032C139.423 14.0133 139.69 14.7493 140.223 15.24C140.767 15.7307 141.519 15.976 142.479 15.976C143.311 15.976 143.935 15.7947 144.351 15.432C144.778 15.0587 144.991 14.568 144.991 13.96V13.864C144.991 13.2773 144.773 12.8293 144.335 12.52C143.909 12.2107 143.21 11.9867 142.239 11.848C141.674 11.7733 141.162 11.6613 140.703 11.512C140.255 11.352 139.871 11.1493 139.551 10.904C139.231 10.648 138.986 10.344 138.815 9.992C138.645 9.64 138.559 9.224 138.559 8.744V8.552C138.559 8.11467 138.65 7.71467 138.831 7.352C139.013 6.98933 139.263 6.67467 139.583 6.408C139.914 6.14133 140.303 5.93867 140.751 5.8C141.21 5.65067 141.711 5.576 142.255 5.576C142.885 5.576 143.445 5.66667 143.935 5.848C144.437 6.02933 144.858 6.27467 145.199 6.584C145.541 6.88267 145.797 7.24 145.967 7.656C146.149 8.06133 146.239 8.488 146.239 8.936V9.608H144.895V9.032ZM148.116 5.8H155.988V7.048H152.724V17H151.38V7.048H148.116V5.8ZM158.297 5.8H165.401V7.048H162.521V15.752H165.401V17H158.297V15.752H161.177V7.048H158.297V5.8ZM173.838 16.424H174.03V5.8H175.374V17H172.686L169.454 6.376H169.262V17H167.918V5.8H170.606L173.838 16.424ZM180.371 11.624H185.363V17H184.115V15.656H183.923C183.742 16.1253 183.422 16.504 182.963 16.792C182.504 17.08 181.971 17.224 181.363 17.224C180.158 17.224 179.208 16.8347 178.515 16.056C177.832 15.2773 177.491 14.1413 177.491 12.648V10.152C177.491 8.70133 177.838 7.576 178.531 6.776C179.224 5.976 180.19 5.576 181.427 5.576C182.067 5.576 182.632 5.68267 183.123 5.896C183.614 6.09867 184.024 6.38667 184.355 6.76C184.686 7.12267 184.936 7.55467 185.107 8.056C185.278 8.54667 185.363 9.07467 185.363 9.64V9.832H184.019V9.64C184.019 9.27733 183.966 8.92533 183.859 8.584C183.763 8.24267 183.608 7.944 183.395 7.688C183.192 7.42133 182.926 7.21333 182.595 7.064C182.275 6.904 181.886 6.824 181.427 6.824C180.563 6.824 179.912 7.13867 179.475 7.768C179.048 8.39733 178.835 9.224 178.835 10.248V12.552C178.835 13.6507 179.048 14.4987 179.475 15.096C179.912 15.6827 180.574 15.976 181.459 15.976C182.259 15.976 182.883 15.72 183.331 15.208C183.79 14.696 184.019 13.9813 184.019 13.064V12.872H180.371V11.624Z" fill="#FF6E6E"></path></svg>

<svg xmlns="http://www.w3.org/2000/svg" width="197" height="23" fill="none"><rect width="197" height="23" fill="#032538" rx="5"/><path fill="#FF6E6E" d="M11.552 14.92v-1.344l6.208-2.08v-.192l-6.208-2.08V7.88l6.688 2.304v2.432l-6.688 2.304ZM37.994 17H36.65v-3.744c0-.277-.064-.49-.192-.64-.128-.15-.352-.224-.672-.224h-3.488V17h-1.344V5.8h4c.576 0 1.077.085 1.504.256.426.16.778.379 1.056.656.288.277.501.603.64.976.15.363.224.747.224 1.152v.48c0 .416-.118.832-.352 1.248-.224.416-.576.736-1.056.96v.192c.32.053.57.181.752.384.181.203.272.49.272.864V17Zm-5.696-5.856h2.496c.757 0 1.317-.16 1.68-.48.373-.33.56-.81.56-1.44v-.288c0-.565-.187-1.019-.56-1.36-.363-.352-.923-.528-1.68-.528h-2.496v4.096ZM40.895 5.8h6.784v1.248h-5.44v3.712h5.344v1.248h-5.344v3.744h5.536V17h-6.88V5.8Zm8.724 0h1.44l2.928 10.624h.192L57.107 5.8h1.44L55.38 17h-2.593L49.62 5.8Zm10.87 0h6.783v1.248h-5.44v3.712h5.344v1.248h-5.344v3.744h5.536V17h-6.88V5.8Zm15.38 10.624h.192V5.8h1.344V17h-2.688L71.485 6.376h-.192V17H69.95V5.8h2.688l3.232 10.624ZM80.98 5.8v7.424c0 .907.207 1.595.623 2.064.427.459 1.05.688 1.872.688.822 0 1.44-.23 1.856-.688.427-.47.64-1.157.64-2.064V5.8h1.344v7.424c0 1.301-.341 2.293-1.024 2.976-.683.683-1.621 1.024-2.816 1.024-1.195 0-2.133-.341-2.816-1.024-.683-.683-1.024-1.675-1.024-2.976V5.8h1.344Zm8.9 0h6.784v1.248h-5.44v3.712h5.344v1.248h-5.344v3.744h5.536V17h-6.88V5.8Zm10.789 6.464h4.8v1.152h-4.8v-1.152Zm8.213 3.488h.96V7.048h-.96V5.8h4.528c.533 0 1.002.075 1.408.224.416.15.762.352 1.04.608.288.256.501.565.64.928.149.352.224.736.224 1.152v.192c0 .31-.048.592-.144.848-.096.256-.23.485-.4.688a2.663 2.663 0 0 1-.608.528 2.86 2.86 0 0 1-.736.32v.192c.533.15.981.437 1.344.864.362.416.544.928.544 1.536v.192c0 .416-.075.805-.224 1.168a2.508 2.508 0 0 1-.64.928 3.016 3.016 0 0 1-1.04.608c-.406.15-.875.224-1.408.224h-4.528v-1.248Zm2.304 0h2.128c.629 0 1.141-.155 1.536-.464.394-.32.592-.757.592-1.312v-.096c0-.576-.187-1.03-.56-1.36-.374-.341-.88-.512-1.52-.512h-2.176v3.744Zm0-4.992h2.176c.64 0 1.146-.165 1.52-.496.373-.33.56-.784.56-1.36v-.096c0-.544-.198-.97-.592-1.28-.395-.32-.907-.48-1.536-.48h-2.128v3.712Zm7.541-.608c0-1.45.346-2.576 1.04-3.376.693-.8 1.658-1.2 2.896-1.2 1.237 0 2.202.4 2.896 1.2.693.8 1.04 1.925 1.04 3.376v2.496c0 1.493-.347 2.63-1.04 3.408-.694.779-1.659 1.168-2.896 1.168-1.238 0-2.203-.39-2.896-1.168-.694-.779-1.04-1.915-1.04-3.408v-2.496Zm3.936 5.824c.864 0 1.509-.293 1.936-.88.437-.597.656-1.445.656-2.544v-2.304c0-1.024-.219-1.85-.656-2.48-.427-.63-1.072-.944-1.936-.944-.864 0-1.515.315-1.952.944-.427.63-.64 1.456-.64 2.48v2.304c0 1.099.213 1.947.64 2.544.437.587 1.088.88 1.952.88Zm5.861-5.824c0-1.45.346-2.576 1.039-3.376.694-.8 1.659-1.2 2.897-1.2 1.237 0 2.202.4 2.896 1.2.693.8 1.04 1.925 1.04 3.376v2.496c0 1.493-.347 2.63-1.04 3.408-.694.779-1.659 1.168-2.896 1.168-1.238 0-2.203-.39-2.897-1.168-.693-.779-1.039-1.915-1.039-3.408v-2.496Zm3.936 5.824c.864 0 1.509-.293 1.936-.88.437-.597.656-1.445.656-2.544v-2.304c0-1.024-.219-1.85-.656-2.48-.427-.63-1.072-.944-1.936-.944-.864 0-1.515.315-1.952.944-.427.63-.64 1.456-.64 2.48v2.304c0 1.099.213 1.947.64 2.544.437.587 1.088.88 1.952.88Zm12.436-6.944c0-.363-.074-.683-.224-.96a1.885 1.885 0 0 0-.576-.688 2.731 2.731 0 0 0-.848-.416 3.49 3.49 0 0 0-1.008-.144 2.98 2.98 0 0 0-.88.128 2.535 2.535 0 0 0-.752.336c-.213.15-.384.336-.512.56a1.434 1.434 0 0 0-.192.752v.096c0 .31.064.576.192.8.128.213.315.4.56.56.256.15.571.277.944.384.374.096.811.181 1.312.256 1.174.181 2.038.528 2.592 1.04.555.501.832 1.179.832 2.032v.192c0 .48-.085.923-.256 1.328-.16.395-.405.736-.736 1.024a3.35 3.35 0 0 1-1.2.672c-.48.16-1.034.24-1.664.24-.714 0-1.349-.101-1.904-.304a4.094 4.094 0 0 1-1.376-.864 3.868 3.868 0 0 1-.832-1.296 4.525 4.525 0 0 1-.288-1.632v-.48h1.344v.384c0 .981.267 1.717.8 2.208.544.49 1.296.736 2.256.736.832 0 1.456-.181 1.872-.544.427-.373.64-.864.64-1.472v-.096c0-.587-.218-1.035-.656-1.344-.426-.31-1.125-.533-2.096-.672a8.63 8.63 0 0 1-1.536-.336 4.202 4.202 0 0 1-1.152-.608 2.63 2.63 0 0 1-.736-.912c-.17-.352-.256-.768-.256-1.248v-.192c0-.437.091-.837.272-1.2.182-.363.432-.677.752-.944.331-.267.72-.47 1.168-.608.459-.15.96-.224 1.504-.224.63 0 1.19.09 1.68.272.502.181.923.427 1.264.736.342.299.598.656.768 1.072.182.405.272.832.272 1.28v.672h-1.344v-.576Zm3.221-3.232h7.872v1.248h-3.264V17h-1.344V7.048h-3.264V5.8Zm10.181 0h7.104v1.248h-2.88v8.704h2.88V17h-7.104v-1.248h2.88V7.048h-2.88V5.8Zm15.541 10.624h.192V5.8h1.344V17h-2.688l-3.232-10.624h-.192V17h-1.344V5.8h2.688l3.232 10.624Zm6.533-4.8h4.992V17h-1.248v-1.344h-.192a2.3 2.3 0 0 1-.96 1.136c-.459.288-.992.432-1.6.432-1.205 0-2.155-.39-2.848-1.168-.683-.779-1.024-1.915-1.024-3.408v-2.496c0-1.45.347-2.576 1.04-3.376.693-.8 1.659-1.2 2.896-1.2.64 0 1.205.107 1.696.32.491.203.901.49 1.232.864.331.363.581.795.752 1.296a4.78 4.78 0 0 1 .256 1.584v.192h-1.344V9.64a3.51 3.51 0 0 0-.16-1.056 2.397 2.397 0 0 0-.464-.896 2.035 2.035 0 0 0-.8-.624c-.32-.16-.709-.24-1.168-.24-.864 0-1.515.315-1.952.944-.427.63-.64 1.456-.64 2.48v2.304c0 1.099.213 1.947.64 2.544.437.587 1.099.88 1.984.88.8 0 1.424-.256 1.872-.768.459-.512.688-1.227.688-2.144v-.192h-3.648v-1.248Z"/></svg>
